dist/assets/img/questions/1/answers/3_1200.svg

<svg width="460" height="240" viewBox="0 0 460 240" fill="none" xmlns="http://www.w3.org/2000/svg">
<g filter="url(#filter0_di_1419_54645)">
<path fill-rule="evenodd" clip-rule="evenodd" d="M63.4354 28C59.3471 28 55.9166 31.0824 55.4809 35.1474L40.0464 179.147C39.5396 183.876 43.2452 188 48.0009 188H387.76C391.848 188 395.279 184.918 395.714 180.853L398.101 158.589C398.632 153.634 403.533 150.382 408.023 152.545C412.919 154.903 416.888 157.53 419.412 159.201C419.472 159.241 419.549 159.185 419.529 159.116C417.334 151.548 411.31 145.451 404.725 140.933C402.104 139.135 400.509 136.115 400.848 132.954L411.149 36.8526C411.656 32.124 407.95 28 403.194 28H63.4354Z" fill="#FFF0CB"/>
</g>
<defs>
<filter id="filter0_di_1419_54645" x="0" y="0" width="459.531" height="240" filterUnits="userSpaceOnUse" color-interpolation-filters="sRGB">
<feFlood flood-opacity="0" result="BackgroundImageFix"/>
<feColorMatrix in="SourceAlpha" type="matrix" values="0 0 0 0 0 0 0 0 0 0 0 0 0 0 0 0 0 0 127 0" result="hardAlpha"/>
<feOffset dy="12"/>
<feGaussianBlur stdDeviation="20"/>
<feComposite in2="hardAlpha" operator="out"/>
<feColorMatrix type="matrix" values="0 0 0 0 1 0 0 0 0 1 0 0 0 0 1 0 0 0 1 0"/>
<feBlend mode="normal" in2="BackgroundImageFix" result="effect1_dropShadow_1419_54645"/>
<feBlend mode="normal" in="SourceGraphic" in2="effect1_dropShadow_1419_54645" result="shape"/>
<feColorMatrix in="SourceAlpha" type="matrix" values="0 0 0 0 0 0 0 0 0 0 0 0 0 0 0 0 0 0 127 0" result="hardAlpha"/>
<feOffset dy="-4"/>
<feGaussianBlur stdDeviation="4"/>
<feComposite in2="hardAlpha" operator="arithmetic" k2="-1" k3="1"/>
<feColorMatrix type="matrix" values="0 0 0 0 0.883659 0 0 0 0 0.635314 0 0 0 0 0.0558422 0 0 0 0.4 0"/>
<feBlend mode="normal" in2="shape" result="effect2_innerShadow_1419_54645"/>
</filter>
</defs>
</svg>

<svg width="460" height="240" viewBox="0 0 460 240" fill="none" xmlns="http://www.w3.org/2000/svg"><g filter="url(#filter0_di_1419_54645)"><path fill-rule="evenodd" clip-rule="evenodd" d="M63.435 28a8 8 0 00-7.954 7.147l-15.435 144c-.506 4.729 3.2 8.853 7.955 8.853H387.76a7.999 7.999 0 007.954-7.147l2.387-22.264c.531-4.955 5.432-8.207 9.922-6.044 4.896 2.358 8.865 4.985 11.389 6.656.06.04.137-.016.117-.085-2.195-7.568-8.219-13.665-14.804-18.183-2.621-1.798-4.216-4.818-3.877-7.979l10.301-96.101c.507-4.729-3.199-8.853-7.955-8.853H63.435z" fill="#FFF0CB"/></g><defs><filter id="filter0_di_1419_54645" x="0" y="0" width="459.531" height="240" filterUnits="userSpaceOnUse" color-interpolation-filters="sRGB"><feFlood flood-opacity="0" result="BackgroundImageFix"/><feColorMatrix in="SourceAlpha" values="0 0 0 0 0 0 0 0 0 0 0 0 0 0 0 0 0 0 127 0" result="hardAlpha"/><feOffset dy="12"/><feGaussianBlur stdDeviation="20"/><feComposite in2="hardAlpha" operator="out"/><feColorMatrix values="0 0 0 0 1 0 0 0 0 1 0 0 0 0 1 0 0 0 1 0"/><feBlend in2="BackgroundImageFix" result="effect1_dropShadow_1419_54645"/><feBlend in="SourceGraphic" in2="effect1_dropShadow_1419_54645" result="shape"/><feColorMatrix in="SourceAlpha" values="0 0 0 0 0 0 0 0 0 0 0 0 0 0 0 0 0 0 127 0" result="hardAlpha"/><feOffset dy="-4"/><feGaussianBlur stdDeviation="4"/><feComposite in2="hardAlpha" operator="arithmetic" k2="-1" k3="1"/><feColorMatrix values="0 0 0 0 0.883659 0 0 0 0 0.635314 0 0 0 0 0.0558422 0 0 0 0.4 0"/><feBlend in2="shape" result="effect2_innerShadow_1419_54645"/></filter></defs></svg>
